lib/preview/nrk-logo-preview-nrk-klassisk.svg

<svg width="100" height="14" viewBox="0 0 100 14" fill="none" xmlns="http://www.w3.org/2000/svg">
<path d="M6.10352e-05 13.0004V1.00146H3.93725V13.0004H6.10352e-05ZM9.29387 2.91115L11.5581 13.0004H7.24923L4.54555 1.00146H6.96224C7.51641 0.994264 8.05412 1.18961 8.47456 1.55076C8.89568 1.89675 9.18501 2.37706 9.29387 2.91115ZM12.1496 13.0004V1.00146H16.0868V13.0004H12.1496ZM19.0605 5.56447C18.6363 5.5686 18.2188 5.4576 17.8526 5.24333C17.4913 5.03449 17.1912 4.73433 16.9823 4.37296C16.7678 4.0067 16.6568 3.58913 16.661 3.16468C16.6562 2.74283 16.7673 2.32775 16.9823 1.96479C17.1934 1.60736 17.4932 1.31046 17.8526 1.10289C18.2189 0.888869 18.6363 0.777881 19.0605 0.78175C19.4823 0.777208 19.8972 0.888295 20.2603 1.10289C20.6161 1.31228 20.9127 1.60893 21.1221 1.96479C21.3369 2.32785 21.448 2.74286 21.4434 3.16468C21.4473 3.58909 21.3363 4.00659 21.1221 4.37296C20.9149 4.73274 20.618 5.03265 20.2603 5.24333C19.8972 5.45834 19.4819 5.56946 19.06 5.56447H19.0605ZM22.0517 13.0004V1.00146H25.9892V13.0004H22.0517ZM30.9738 7.5586C30.9849 7.57024 31.0693 7.70825 31.2272 7.97264C31.3851 8.23703 31.5907 8.57505 31.844 8.98666C32.0975 9.39807 32.3649 9.83462 32.6464 10.2964C32.9278 10.7581 33.1927 11.1947 33.4409 11.6061C33.6882 12.0176 33.9698 12.4823 34.2858 13.0004H29.9599C29.6893 12.561 29.4442 12.1638 29.2245 11.8089C29.0049 11.454 28.7714 11.071 28.5239 10.6597C28.2759 10.2489 28.0307 9.8489 27.7883 9.45983C27.5459 9.07076 27.3376 8.72998 27.1633 8.43742C26.9883 8.14468 26.8671 7.94749 26.7997 7.8459C26.6326 7.59381 26.5337 7.30266 26.5127 7.00091C26.5295 6.7113 26.6227 6.43134 26.7828 6.18948C26.8504 6.07681 26.9743 5.87679 27.1546 5.5895C27.3348 5.3022 27.5461 4.96142 27.7883 4.56709C28.0305 4.17276 28.2757 3.76997 28.5239 3.35874C28.7721 2.94751 29.0056 2.5616 29.2245 2.20107C29.4446 1.84092 29.6897 1.44095 29.9599 1.00118H34.2858L30.9397 6.45986C30.8361 6.62193 30.7778 6.80871 30.7707 7.00091C30.7818 7.20269 30.8523 7.39668 30.9732 7.5586H30.9738Z" fill="white"/>
<path d="M47.9566 1.01032H45.8464L41.2601 6.29441H40.6299V1.01032H38.8572V12.9966H40.6299V7.57743H40.6895L45.6778 13.0135L48.092 12.9963L42.369 7.05382L47.9566 1.01032Z" fill="white"/>
<path d="M52.1011 11.7554C52.0423 11.7619 51.9831 11.7648 51.9239 11.7641C51.7968 11.7679 51.6703 11.7448 51.5528 11.6963C51.4504 11.6508 51.3628 11.5778 51.2996 11.4853C51.2263 11.376 51.1773 11.2522 51.1561 11.1223C51.1257 10.9497 51.1116 10.7746 51.1139 10.5993V0.250601L49.3919 0.503838V11.359C49.3847 11.6435 49.4305 11.9269 49.5269 12.1946C49.6079 12.4122 49.7413 12.6065 49.9153 12.7602C50.0885 12.9087 50.2935 13.0156 50.5145 13.0725C50.7598 13.1361 51.0124 13.1673 51.2658 13.1654C51.4011 13.1654 51.5303 13.1597 51.6541 13.1482C51.7779 13.1367 51.8989 13.1201 52.0171 13.0978C52.1352 13.0756 52.2337 13.0528 52.3125 13.0303L52.4813 11.6963C52.4138 11.708 52.3462 11.7192 52.2787 11.7301C52.2112 11.741 52.152 11.7494 52.1011 11.7554Z" fill="white"/>
<path d="M61.513 11.933C61.3895 11.9443 61.2652 11.9257 61.1506 11.8786C61.036 11.8315 60.9344 11.7574 60.8545 11.6626C60.6979 11.3922 60.6328 11.0785 60.6689 10.7681L60.7026 7.29045C60.7063 6.92577 60.6609 6.56224 60.5675 6.2097C60.4855 5.90072 60.3482 5.60914 60.1624 5.349C59.9746 5.09452 59.736 4.88182 59.4618 4.72438C59.1433 4.54327 58.7987 4.4123 58.4404 4.33609C58.0022 4.24143 57.5549 4.1961 57.1067 4.201C56.7512 4.20085 56.3961 4.2234 56.0435 4.26853C55.7101 4.31042 55.38 4.37522 55.0555 4.46241C54.7547 4.54419 54.4589 4.64293 54.1692 4.75814L53.9667 6.19311C54.248 6.09144 54.5153 6.00702 54.7686 5.93987C55.0218 5.87272 55.2666 5.81645 55.5029 5.77105C55.7345 5.72667 55.9684 5.69565 56.2035 5.67818C56.434 5.6613 56.6621 5.65287 56.8876 5.65287C57.2317 5.64549 57.5752 5.68526 57.9086 5.77105C58.1519 5.83192 58.3757 5.95396 58.5586 6.12558C58.7214 6.29243 58.8378 6.4989 58.8962 6.72459C58.9683 7.003 59.0025 7.28986 58.9978 7.57741L58.9958 8.00118L57.0223 8.13455C56.3474 8.15338 55.6824 8.30241 55.064 8.57347C54.6011 8.77594 54.2016 9.09964 53.9076 9.51041C53.6579 9.87587 53.5254 10.3087 53.5277 10.7513C53.5245 11.1664 53.6262 11.5757 53.8232 11.9412C54.0296 12.3168 54.3403 12.6248 54.7179 12.8277C55.1784 13.0673 55.6932 13.1837 56.212 13.1654C56.6981 13.1766 57.182 13.0964 57.6385 12.9288C58.0332 12.7742 58.3944 12.5449 58.7021 12.2535C58.8189 12.1413 58.9297 12.0232 59.0341 11.8995C59.0669 12.0744 59.1287 12.2425 59.217 12.397C59.3674 12.6554 59.5988 12.8571 59.8754 12.971C60.1811 13.0937 60.5083 13.1539 60.8376 13.148C60.9389 13.148 61.0374 13.1454 61.1331 13.1395C61.227 13.1341 61.3203 13.12 61.4116 13.0976C61.5017 13.0748 61.583 13.0551 61.6565 13.0385C61.7225 13.0235 61.7874 13.0037 61.8506 12.9794L62.0363 11.848C61.9431 11.8802 61.8469 11.9029 61.7493 11.9158C61.6709 11.9264 61.592 11.9321 61.513 11.933ZM58.7021 11.1733C58.5191 11.3179 58.3209 11.4423 58.1112 11.5444C57.9023 11.6462 57.6809 11.7201 57.4528 11.7642C57.2164 11.8097 56.9763 11.8323 56.7356 11.8317C56.4604 11.8396 56.1867 11.7878 55.9334 11.6798C55.7275 11.5902 55.5537 11.4399 55.4354 11.249C55.3185 11.0466 55.26 10.8158 55.2665 10.5822C55.2503 10.3008 55.3274 10.022 55.486 9.789C55.6697 9.57442 55.9189 9.42613 56.1951 9.36694C56.6263 9.26528 57.069 9.21985 57.5119 9.23186H58.9902L58.9826 10.9074C58.8969 11.004 58.8031 11.0929 58.7021 11.1733Z" fill="white"/>
<path d="M68.9745 9.11369C68.8017 8.93038 68.6026 8.77381 68.3837 8.64915C68.1571 8.51958 67.9198 8.40944 67.6746 8.31994C67.4945 8.26367 67.3173 8.20458 67.1429 8.14268C66.9684 8.08078 66.7939 8.02451 66.6195 7.97387C66.4447 7.92322 66.2758 7.86974 66.113 7.81347C65.9599 7.76145 65.8105 7.69935 65.6657 7.62751C65.527 7.55373 65.3942 7.46905 65.2689 7.37428C65.1531 7.2871 65.0556 7.17802 64.9819 7.05324C64.9074 6.92521 64.8694 6.77927 64.8719 6.63119C64.8675 6.46849 64.9086 6.30778 64.9906 6.1672C65.0787 6.02897 65.2008 5.91562 65.3452 5.83799C65.5218 5.74095 65.7127 5.67249 65.9107 5.63513C66.1583 5.58775 66.4099 5.56522 66.6619 5.56788C66.7855 5.56788 66.9209 5.57381 67.0669 5.58478C67.2129 5.59576 67.3736 5.61572 67.5483 5.64386C67.723 5.67199 67.8966 5.70858 68.0716 5.75332C68.2466 5.79806 68.4233 5.84924 68.6034 5.90524C68.7702 5.9568 68.9335 6.01883 69.0924 6.09095L69.2112 4.72378C68.9971 4.63374 68.7861 4.55488 68.5781 4.48717C68.3701 4.41999 68.1588 4.36361 67.945 4.31832C67.7361 4.27406 67.5247 4.24306 67.3119 4.22548C67.1031 4.2086 66.8983 4.20017 66.6955 4.20017C66.2291 4.19545 65.7641 4.24931 65.3112 4.36053C64.9239 4.45471 64.5557 4.61461 64.2225 4.83324C63.9202 5.03298 63.6733 5.30591 63.5047 5.62668C63.3285 5.98015 63.2416 6.37141 63.2515 6.76624C63.2464 7.05061 63.2921 7.3336 63.3866 7.60189C63.467 7.82683 63.587 8.03555 63.7411 8.2181C63.8913 8.39029 64.0646 8.54084 64.256 8.66547C64.4554 8.79632 64.6675 8.90659 64.8891 8.99465C65.0125 9.03967 65.142 9.08459 65.2776 9.12942C65.4127 9.17472 65.5447 9.21695 65.6744 9.25606C65.8041 9.29517 65.9298 9.33514 66.0542 9.37425C66.1786 9.41336 66.2987 9.45329 66.4169 9.4924C66.5351 9.53151 66.6504 9.56865 66.763 9.60241C66.9141 9.65582 67.0609 9.72065 67.2022 9.7963C67.326 9.86202 67.4421 9.94138 67.5483 10.0329C67.6416 10.1147 67.7164 10.2154 67.7678 10.3284C67.8191 10.4453 67.8449 10.5718 67.8435 10.6995C67.8495 10.8243 67.8276 10.949 67.7794 11.0643C67.7313 11.1797 67.658 11.2828 67.5649 11.3663C67.356 11.5411 67.1062 11.6602 66.839 11.7127C66.5259 11.7817 66.2061 11.8156 65.8854 11.8137C65.6849 11.8124 65.4846 11.7984 65.2858 11.7718C65.0665 11.7436 64.8359 11.7042 64.5939 11.6536C64.352 11.6029 64.1043 11.541 63.8511 11.4679C63.5977 11.3947 63.3416 11.3131 63.083 11.2231L63.1502 12.6581C63.4426 12.7595 63.71 12.8411 63.9521 12.9028C64.1943 12.9646 64.4251 13.0181 64.6446 13.0635C64.8559 13.1074 65.0703 13.1356 65.2858 13.1479C65.494 13.1596 65.705 13.1653 65.9189 13.1651C66.3899 13.1675 66.8597 13.1193 67.3204 13.0213C67.7258 12.9391 68.1142 12.7878 68.4684 12.5739C68.7876 12.379 69.0519 12.1061 69.2365 11.7808C69.4296 11.4235 69.5255 11.0217 69.5145 10.6156C69.5216 10.3195 69.4731 10.0247 69.3713 9.7465C69.2805 9.51224 69.1458 9.29746 68.9745 9.11369Z" fill="white"/>
<path d="M76.892 9.1137C76.7191 8.93045 76.5199 8.7739 76.3011 8.64916C76.0744 8.51952 75.8371 8.40938 75.5917 8.31995C75.4117 8.26367 75.2344 8.20459 75.06 8.14268C74.8855 8.08078 74.7111 8.02452 74.5366 7.97387C74.3622 7.92322 74.1933 7.86975 74.0301 7.81347C73.8771 7.7614 73.7277 7.6993 73.5828 7.62752C73.4441 7.55374 73.3114 7.46906 73.186 7.37428C73.0703 7.28712 72.973 7.17804 72.8994 7.05324C72.8248 6.92527 72.7867 6.77929 72.7893 6.63119C72.7848 6.46852 72.8258 6.30782 72.9078 6.1672C72.9957 6.02884 73.1178 5.91545 73.2623 5.83799C73.4389 5.74095 73.6298 5.6725 73.8278 5.63514C74.0753 5.58777 74.3269 5.56524 74.5789 5.56789C74.7027 5.56789 74.8377 5.57381 74.9843 5.58479C75.1309 5.59576 75.2907 5.61573 75.4654 5.64386C75.6401 5.672 75.8141 5.70859 75.9885 5.75333C76.163 5.79806 76.3402 5.84925 76.5205 5.90524C76.6874 5.95679 76.8508 6.01882 77.0098 6.09095L77.1283 4.72379C76.9142 4.63375 76.7032 4.55489 76.4952 4.48717C76.2872 4.41994 76.0759 4.36357 75.8621 4.31832C75.6533 4.27406 75.4418 4.24306 75.229 4.22548C75.0205 4.2086 74.8151 4.20017 74.6129 4.20017C74.1465 4.1954 73.6814 4.24927 73.2286 4.36054C72.8412 4.45462 72.4729 4.61453 72.1396 4.83325C71.8374 5.03298 71.5906 5.30592 71.4222 5.62669C71.2457 5.98005 71.1587 6.37139 71.1689 6.76624C71.1638 7.05064 71.2096 7.33365 71.3042 7.6019C71.3843 7.82699 71.5044 8.03576 71.6588 8.21811C71.8088 8.39041 71.9821 8.54097 72.1737 8.66547C72.3731 8.79632 72.5852 8.9066 72.8068 8.99465C72.9302 9.03967 73.0596 9.0846 73.195 9.12943C73.3301 9.17473 73.4621 9.21696 73.5918 9.25607C73.7215 9.29518 73.8475 9.33514 73.9713 9.37425C74.0951 9.41336 74.2161 9.45329 74.3343 9.4924C74.4525 9.53152 74.5678 9.56865 74.6807 9.60242C74.8316 9.65582 74.9782 9.72065 75.1193 9.7963C75.2433 9.86189 75.3595 9.94126 75.4657 10.0329C75.559 10.1146 75.6338 10.2154 75.6849 10.3284C75.7366 10.4452 75.7626 10.5717 75.7611 10.6995C75.7672 10.8244 75.7453 10.949 75.697 11.0644C75.6488 11.1797 75.5755 11.2829 75.4823 11.3663C75.2734 11.5411 75.0237 11.6602 74.7564 11.7127C74.4433 11.7817 74.1235 11.8156 73.8028 11.8137C73.6024 11.8124 73.4022 11.7984 73.2035 11.7718C72.984 11.7436 72.7533 11.7042 72.5113 11.6536C72.2693 11.603 72.0217 11.541 71.7683 11.4679C71.5152 11.3947 71.2593 11.3131 71.0004 11.2231L71.0679 12.6581C71.3602 12.7595 71.6274 12.8411 71.8698 12.9029C72.1122 12.9646 72.3429 13.0181 72.562 13.0635C72.7734 13.1074 72.9879 13.1356 73.2035 13.148C73.4115 13.1596 73.6225 13.1653 73.8366 13.1651C74.3073 13.1676 74.777 13.1194 75.2375 13.0213C75.643 12.9392 76.0313 12.7878 76.3855 12.574C76.7048 12.3791 76.9693 12.1061 77.1539 11.7808C77.3472 11.4235 77.4431 11.0217 77.4322 10.6156C77.4393 10.3195 77.3906 10.0247 77.2887 9.7465C77.198 9.5122 77.0634 9.2974 76.892 9.1137Z" fill="white"/>
<path d="M80.9521 0.681053C80.7769 0.573994 80.5752 0.518428 80.3699 0.520689C80.162 0.519103 79.9577 0.57456 79.7791 0.681053C79.603 0.784087 79.4552 0.92908 79.3488 1.1031C79.2415 1.27815 79.1858 1.47997 79.1882 1.68528C79.1865 1.89324 79.2421 2.09765 79.3488 2.27615C79.452 2.45268 79.6006 2.5984 79.7791 2.6982C79.9594 2.79943 80.1631 2.85182 80.3699 2.85015C80.5741 2.85246 80.7751 2.79998 80.9521 2.6982C81.1257 2.59759 81.2688 2.45171 81.366 2.27615C81.4672 2.09578 81.5196 1.89211 81.5179 1.68528C81.5203 1.48113 81.4678 1.28007 81.366 1.1031C81.2656 0.929934 81.1233 0.784797 80.9521 0.681053Z" fill="white"/>
<path d="M79.4749 12.9963H81.1969V4.21764L79.4749 4.47088V12.9963Z" fill="white"/>
<path d="M89.1652 9.1137C88.9924 8.93037 88.7933 8.7738 88.5743 8.64916C88.3477 8.51954 88.1104 8.40939 87.865 8.31995C87.6851 8.26367 87.5079 8.20459 87.3335 8.14269C87.159 8.08078 86.9845 8.02452 86.8099 7.97387C86.6354 7.92323 86.4666 7.86975 86.3034 7.81347C86.1504 7.76144 86.001 7.69934 85.8563 7.62752C85.7174 7.55381 85.5847 7.46912 85.4593 7.37428C85.3436 7.2871 85.2462 7.17802 85.1726 7.05324C85.098 6.92527 85.06 6.77929 85.0626 6.63119C85.0581 6.46852 85.0991 6.30782 85.181 6.1672C85.269 6.02886 85.3911 5.91547 85.5356 5.83799C85.7122 5.74095 85.9031 5.6725 86.1011 5.63514C86.3487 5.58777 86.6003 5.56524 86.8523 5.56789C86.9759 5.56789 87.1112 5.57381 87.2575 5.58479C87.4038 5.59576 87.564 5.61573 87.7387 5.64386C87.9134 5.672 88.0873 5.70859 88.2617 5.75333C88.4362 5.79806 88.6135 5.84925 88.7938 5.90524C88.9607 5.9568 89.1241 6.01884 89.2831 6.09095L89.4016 4.72379C89.1875 4.63375 88.9765 4.55489 88.7685 4.48717C88.5605 4.41993 88.3492 4.36355 88.1354 4.31832C87.9265 4.27406 87.7151 4.24306 87.5023 4.22548C87.2939 4.2086 87.0885 4.20017 86.8861 4.20017C86.4198 4.1954 85.9547 4.24927 85.5018 4.36054C85.1144 4.45461 84.7461 4.61452 84.4129 4.83325C84.1107 5.03299 83.8638 5.30593 83.6954 5.62669C83.5189 5.98006 83.432 6.37139 83.4422 6.76624C83.437 7.05065 83.4829 7.33366 83.5775 7.6019C83.6576 7.82699 83.7777 8.03576 83.9321 8.21811C84.0821 8.39036 84.2555 8.54091 84.447 8.66547C84.6463 8.79632 84.8585 8.9066 85.0801 8.99465C85.2035 9.03967 85.3329 9.0846 85.4683 9.12943C85.6037 9.17426 85.736 9.21649 85.865 9.25607C85.9941 9.29583 86.1206 9.33524 86.2446 9.37425C86.3686 9.41327 86.4896 9.45264 86.6076 9.4924C86.7258 9.53198 86.8412 9.56865 86.9539 9.60242C87.105 9.65582 87.2517 9.72065 87.3929 9.7963C87.5168 9.86196 87.6328 9.94132 87.739 10.0329C87.8323 10.1146 87.9071 10.2153 87.9582 10.3284C88.0099 10.4452 88.0359 10.5717 88.0344 10.6995C88.0404 10.8243 88.0185 10.949 87.9703 11.0643C87.9221 11.1797 87.8489 11.2829 87.7558 11.3663C87.5467 11.541 87.297 11.6602 87.0296 11.7127C86.7165 11.7817 86.3967 11.8156 86.076 11.8137C85.8756 11.8124 85.6754 11.7984 85.4768 11.7718C85.2573 11.7436 85.0266 11.7042 84.7846 11.6536C84.5426 11.603 84.2949 11.541 84.0415 11.4679C83.7886 11.3947 83.5327 11.3131 83.2736 11.2231L83.3412 12.6581C83.6336 12.7595 83.9009 12.8411 84.1431 12.9029C84.3852 12.9646 84.616 13.0181 84.8352 13.0635C85.0467 13.1074 85.2611 13.1356 85.4768 13.148C85.6848 13.1596 85.8958 13.1653 86.1098 13.1651C86.5806 13.1676 87.0503 13.1194 87.5108 13.0213C87.9163 12.9391 88.3048 12.7878 88.659 12.574C88.9782 12.379 89.2426 12.1061 89.4272 11.7808C89.6204 11.4235 89.7164 11.0217 89.7055 10.6156C89.7125 10.3195 89.6638 10.0247 89.562 9.7465C89.4713 9.5122 89.3366 9.2974 89.1652 9.1137Z" fill="white"/>
<path d="M96.9492 12.9963H99.1777L95.0826 8.38187L99.0933 4.38646H96.983L94.0942 7.56029H93.4716V0.250366L91.7496 0.50357V12.9963H93.4716V8.86021H93.4997L96.9492 12.9963Z" fill="white"/>
</svg>

<svg xmlns="http://www.w3.org/2000/svg" viewBox="0 0 100 14"><path fill="#fff" d="M0 13V1.001h3.937v12H0ZM9.294 2.911l2.264 10.09H7.25L4.546 1h2.416a2.276 2.276 0 0 1 1.513.55c.42.346.71.826.819 1.36Zm2.856 10.09V1h3.937v12H12.15Zm6.91-7.437a2.382 2.382 0 0 1-2.4-2.4 2.303 2.303 0 0 1 .322-1.2 2.412 2.412 0 0 1 3.278-.861c.356.21.653.506.862.862.215.363.326.778.321 1.2a2.4 2.4 0 0 1-1.183 2.079 2.303 2.303 0 0 1-1.2.32ZM22.053 13V1.001h3.937v12h-3.937Zm8.922-5.441c.01.011.095.15.253.414s.364.602.617 1.014a322.363 322.363 0 0 1 1.597 2.62c.247.41.529.875.845 1.393H29.96c-.27-.439-.516-.836-.736-1.191-.22-.355-.453-.738-.7-1.15-.248-.41-.493-.81-.736-1.2-.242-.388-.45-.729-.625-1.022-.175-.292-.296-.49-.363-.591A1.75 1.75 0 0 1 26.513 7c.016-.29.11-.57.27-.812.067-.112.191-.312.372-.6a182.106 182.106 0 0 0 1.37-2.23c.247-.411.48-.797.7-1.158l.735-1.2h4.326L30.94 6.46a1.078 1.078 0 0 0-.17.54c.012.203.082.397.203.559ZM47.957 1.01h-2.11L41.26 6.294h-.63V1.01h-1.773v11.987h1.773v-5.42h.06l4.988 5.437 2.414-.018-5.723-5.942 5.588-6.044ZM52.101 11.755c-.059.007-.118.01-.177.01a.902.902 0 0 1-.371-.069.603.603 0 0 1-.253-.21.917.917 0 0 1-.144-.364 2.803 2.803 0 0 1-.042-.523V.251l-1.722.253v10.855c-.007.284.038.568.135.836.08.217.214.412.388.565.174.149.379.256.6.313.245.063.497.094.75.092a4.198 4.198 0 0 0 .752-.067c.118-.022.217-.045.295-.068l.17-1.334a17.822 17.822 0 0 1-.38.06ZM61.513 11.933a.769.769 0 0 1-.658-.27 1.45 1.45 0 0 1-.186-.895l.034-3.478a4.06 4.06 0 0 0-.136-1.08 2.65 2.65 0 0 0-.405-.861 2.285 2.285 0 0 0-.7-.625 3.568 3.568 0 0 0-1.022-.388 6.005 6.005 0 0 0-1.333-.135c-.356 0-.71.022-1.063.068a7.328 7.328 0 0 0-.988.193c-.301.082-.597.18-.887.296l-.202 1.435a9.621 9.621 0 0 1 1.536-.422 6.14 6.14 0 0 1 .7-.093c.231-.017.46-.025.685-.025.344-.008.687.032 1.02.118.244.06.468.183.65.355.163.166.28.373.338.599.072.278.106.565.102.852l-.002.424-1.974.134a5.242 5.242 0 0 0-1.958.438 2.804 2.804 0 0 0-1.156.937 2.18 2.18 0 0 0-.38 1.241c-.003.415.098.825.295 1.19.207.376.517.684.895.887.46.24.975.356 1.494.337a3.88 3.88 0 0 0 1.426-.236 3.294 3.294 0 0 0 1.064-.675c.117-.113.228-.23.332-.354.033.174.095.342.183.497.15.258.382.46.658.574.306.123.633.183.963.177.1 0 .2-.003.295-.008a1.54 1.54 0 0 0 .279-.042c.09-.023.171-.043.245-.06.066-.014.13-.034.194-.059l.185-1.131c-.093.032-.19.055-.287.068-.078.01-.157.016-.236.017Zm-2.81-.76a3.243 3.243 0 0 1-.592.371c-.209.102-.43.176-.658.22a3.745 3.745 0 0 1-.717.068 1.906 1.906 0 0 1-.803-.152c-.206-.09-.38-.24-.498-.431a1.263 1.263 0 0 1-.169-.667c-.016-.281.061-.56.22-.793a1.29 1.29 0 0 1 .71-.422 5.133 5.133 0 0 1 1.316-.135h1.478l-.007 1.675c-.086.097-.18.186-.28.266ZM68.975 9.114a2.538 2.538 0 0 0-.591-.465 4.62 4.62 0 0 0-.71-.33c-.18-.055-.357-.114-.531-.176a9.436 9.436 0 0 0-.523-.17c-.175-.05-.344-.103-.507-.16a3.644 3.644 0 0 1-.447-.185 2.97 2.97 0 0 1-.397-.254 1.106 1.106 0 0 1-.287-.32.812.812 0 0 1-.11-.423.874.874 0 0 1 .119-.464.959.959 0 0 1 .354-.329 1.91 1.91 0 0 1 .566-.203c.247-.047.499-.07.75-.067a5.455 5.455 0 0 1 .887.076c.175.028.349.065.524.11.175.044.351.095.531.151.167.052.33.114.49.186l.118-1.367a8.109 8.109 0 0 0-.633-.237 6.324 6.324 0 0 0-.633-.169 5.067 5.067 0 0 0-.633-.093 7.636 7.636 0 0 0-.617-.025 5.568 5.568 0 0 0-1.384.16 3.486 3.486 0 0 0-1.089.473c-.302.2-.549.473-.717.794a2.418 2.418 0 0 0-.254 1.14c-.005.284.041.567.136.835.08.225.2.434.354.616.15.172.324.323.515.447.2.131.412.242.633.33a13.486 13.486 0 0 0 .785.261l.38.118.363.118c.118.04.233.077.346.11.151.054.298.119.44.194.123.066.24.145.345.237a.874.874 0 0 1 .22.295.899.899 0 0 1 .076.372.841.841 0 0 1-.28.666 1.617 1.617 0 0 1-.725.347 4.312 4.312 0 0 1-.954.1c-.2 0-.4-.015-.6-.041a8.992 8.992 0 0 1-.691-.118 10.29 10.29 0 0 1-.743-.186c-.253-.073-.51-.155-.768-.245l.067 1.435c.293.101.56.183.802.245s.473.115.693.16c.21.044.425.073.64.085.209.012.42.017.634.017.47.003.94-.046 1.401-.144a3.608 3.608 0 0 0 1.148-.447c.32-.195.584-.468.769-.793.193-.357.288-.76.278-1.165a2.364 2.364 0 0 0-.144-.87 1.975 1.975 0 0 0-.396-.632ZM76.892 9.114a2.546 2.546 0 0 0-.59-.465 4.606 4.606 0 0 0-.71-.329c-.18-.056-.358-.115-.532-.177a9.418 9.418 0 0 0-.523-.17c-.175-.05-.344-.103-.507-.16a3.675 3.675 0 0 1-.447-.185 2.976 2.976 0 0 1-.397-.254 1.104 1.104 0 0 1-.287-.32.81.81 0 0 1-.11-.423.873.873 0 0 1 .119-.464.954.954 0 0 1 .354-.329 1.91 1.91 0 0 1 .566-.203c.247-.047.499-.07.75-.067a5.468 5.468 0 0 1 .887.076c.175.028.35.065.523.11.175.044.352.095.532.151.167.052.33.114.49.186l.118-1.367a8.113 8.113 0 0 0-.633-.237 6.3 6.3 0 0 0-.633-.169 5.064 5.064 0 0 0-.633-.093 7.634 7.634 0 0 0-.616-.025 5.563 5.563 0 0 0-1.384.16 3.483 3.483 0 0 0-1.09.473c-.302.2-.548.473-.717.794a2.41 2.41 0 0 0-.253 1.14c-.005.284.04.567.135.835.08.225.2.434.355.616.15.172.323.323.515.447.2.131.411.242.633.33a13.673 13.673 0 0 0 .785.261l.38.118.362.118c.118.04.234.077.347.11.15.054.297.119.438.194.124.066.24.145.347.237a.869.869 0 0 1 .295.667.839.839 0 0 1-.279.666 1.617 1.617 0 0 1-.726.347 4.312 4.312 0 0 1-.953.1 4.75 4.75 0 0 1-.6-.041 8.982 8.982 0 0 1-.692-.118c-.242-.051-.49-.113-.743-.186a15.202 15.202 0 0 1-.768-.245l.068 1.435c.292.101.56.183.802.245s.473.115.692.16c.211.044.426.073.642.085.208.012.419.017.633.017.47.003.94-.046 1.4-.144a3.607 3.607 0 0 0 1.148-.447c.32-.195.584-.468.769-.793.193-.357.29-.76.278-1.165a2.362 2.362 0 0 0-.143-.87 1.97 1.97 0 0 0-.397-.632ZM80.952.681a1.093 1.093 0 0 0-.582-.16 1.137 1.137 0 0 0-.59.16 1.236 1.236 0 0 0-.431.422 1.09 1.09 0 0 0-.16.582c-.002.208.053.413.16.591.103.177.252.322.43.422.18.101.384.154.59.152.205.002.406-.05.583-.152.174-.1.317-.246.414-.422.101-.18.154-.384.152-.59a1.14 1.14 0 0 0-.152-.583 1.193 1.193 0 0 0-.414-.422ZM79.475 12.996h1.722V4.218l-1.722.253v8.525ZM89.165 9.114a2.535 2.535 0 0 0-.59-.465 4.603 4.603 0 0 0-.71-.329c-.18-.056-.357-.115-.531-.177a9.389 9.389 0 0 0-.524-.17c-.175-.05-.343-.103-.507-.16a3.646 3.646 0 0 1-.447-.185 2.952 2.952 0 0 1-.397-.254 1.105 1.105 0 0 1-.286-.32.81.81 0 0 1-.11-.423.874.874 0 0 1 .118-.464.955.955 0 0 1 .355-.329 1.91 1.91 0 0 1 .565-.203c.248-.047.5-.07.751-.067a5.46 5.46 0 0 1 .887.076c.174.028.348.065.523.11.174.044.352.095.532.151.167.052.33.114.49.186l.118-1.367a8.113 8.113 0 0 0-.633-.237 6.292 6.292 0 0 0-.634-.169 5.067 5.067 0 0 0-.633-.093 7.631 7.631 0 0 0-.616-.025 5.564 5.564 0 0 0-1.384.16 3.481 3.481 0 0 0-1.09.473c-.301.2-.548.473-.717.794a2.41 2.41 0 0 0-.253 1.14c-.005.284.04.567.136.835.08.225.2.434.354.616.15.172.323.323.515.447.2.131.412.242.633.33a13.673 13.673 0 0 0 .785.261l.38.118.363.118c.118.04.233.077.346.11.151.054.298.119.439.194.124.066.24.145.346.237a.868.868 0 0 1 .295.667.841.841 0 0 1-.278.666 1.62 1.62 0 0 1-.726.347 4.312 4.312 0 0 1-.954.1c-.2 0-.4-.015-.6-.041a8.982 8.982 0 0 1-.691-.118c-.242-.051-.49-.113-.743-.186a15.333 15.333 0 0 1-.768-.245l.067 1.435c.293.101.56.183.802.245s.473.115.692.16c.212.044.426.073.642.085.208.012.419.017.633.017.47.003.94-.046 1.4-.144a3.61 3.61 0 0 0 1.149-.447c.32-.195.584-.468.768-.793.193-.357.29-.76.278-1.165a2.366 2.366 0 0 0-.143-.87 1.97 1.97 0 0 0-.397-.632ZM96.95 12.996h2.228l-4.095-4.614 4.01-3.996h-2.11L94.094 7.56h-.622V.25L91.75.504v12.492h1.722V8.86h.028l3.45 4.136Z"/></svg>
